svg/fluentui-system-icons/ic_fluent_note_add_28_regular.svg

<svg width="28" height="28" viewBox="0 0 28 28" fill="none" xmlns="http://www.w3.org/2000/svg">
<path d="M14 7.5C14 11.0899 11.0899 14 7.5 14C3.91015 14 1 11.0899 1 7.5C1 3.91015 3.91015 1 7.5 1C11.0899 1 14 3.91015 14 7.5ZM8 3.5C8 3.22386 7.77614 3 7.5 3C7.22386 3 7 3.22386 7 3.5V7H3.5C3.22386 7 3 7.22386 3 7.5C3 7.77614 3.22386 8 3.5 8H7L7 11.5C7 11.7761 7.22386 12 7.5 12C7.77614 12 8 11.7761 8 11.5V8H11.5C11.7761 8 12 7.77614 12 7.5C12 7.22386 11.7761 7 11.5 7H8V3.5ZM21.25 4.5H14.3759C14.142 3.9645 13.8473 3.46159 13.5005 3H21.25C23.3211 3 25 4.67893 25 6.75V15.2574C25 16.2519 24.6049 17.2057 23.9017 17.909L17.909 23.9016C17.2057 24.6049 16.2519 25 15.2574 25H6.75C4.67893 25 3 23.3211 3 21.25V13.5005C3.46159 13.8473 3.9645 14.142 4.5 14.3759V21.25C4.5 22.4926 5.50736 23.5 6.75 23.5H15V18.75C15 16.6789 16.6789 15 18.75 15H23.5V6.75C23.5 5.50736 22.4926 4.5 21.25 4.5ZM16.5 23.1257C16.6244 23.0433 16.7412 22.9481 16.8484 22.841L22.841 16.8483C22.9481 16.7412 23.0433 16.6244 23.1257 16.5H18.75C17.5074 16.5 16.5 17.5074 16.5 18.75V23.1257Z" fill="#212121"/>
</svg>

<svg xmlns="http://www.w3.org/2000/svg" width="28" height="28"><path d="M14 7.5a6.5 6.5 0 1 1-13 0 6.5 6.5 0 0 1 13 0Zm-6-4a.5.5 0 0 0-1 0V7H3.5a.5.5 0 0 0 0 1H7v3.5a.5.5 0 0 0 1 0V8h3.5a.5.5 0 0 0 0-1H8V3.5Zm13.25 1h-6.874A7.486 7.486 0 0 0 13.5 3h7.749A3.75 3.75 0 0 1 25 6.75v8.507a3.75 3.75 0 0 1-1.098 2.652l-5.993 5.993A3.75 3.75 0 0 1 15.257 25H6.75A3.75 3.75 0 0 1 3 21.25V13.5a7.51 7.51 0 0 0 1.5.876v6.874a2.25 2.25 0 0 0 2.25 2.25H15v-4.75A3.75 3.75 0 0 1 18.75 15h4.75V6.75a2.25 2.25 0 0 0-2.25-2.25ZM16.5 23.126c.124-.083.241-.178.348-.285l5.993-5.993c.107-.107.202-.224.285-.348H18.75a2.25 2.25 0 0 0-2.25 2.25v4.376Z"/></svg>
